actions/24/view-calendar-special-occasion.svg

<svg xmlns="http://www.w3.org/2000/svg" viewBox="0 0 24 24" width="24" height="24">
  <defs id="defs3051">
    <style type="text/css" id="current-color-scheme">.ColorScheme-Text {color:#fcfcfc;}</style>
  </defs>
  <g transform="translate(1,1)">
    <path style="fill:currentColor;fill-opacity:1;stroke:none" d="M 6,3 C 6,3 5,2.99997 5,4 5,4 3,4 3,6 3,8 3,7 3,7 v 9 c 0,0 0,3 3,3 3,0 7,0 10,0 3,0 3,-3 3,-3 V 7 C 19,7 19,8 19,6 19,4 17,4 17,4 17,2.99997 16,3 16,3 h -3 c 0,0 -1,-3e-5 -1,1 H 10 C 10,2.99997 9,3 9,3 Z M 6,4 H 9 V 5 H 6 Z m 7,0 h 3 V 5 H 13 Z M 4,7 h 14 v 9 c 0,0 0,2 -2,2 -2,0 -8,0 -10,0 -2,0 -2,-2 -2,-2 z m 4,4 v 3 h 6 v -3 z m -3,1 2,1.5 V 12 Z M 7,13.5 5,15 H 7 Z M 15,12 v 1.5 L 17,12 Z m 0,1.5 V 15 h 2 z" class="ColorScheme-Text"/>
  </g>
</svg>

<svg xmlns="http://www.w3.org/2000/svg" viewBox="0 0 24 24" width="24" height="24">
  <defs id="defs3051">
    <style type="text/css" id="current-color-scheme">
      .ColorScheme-Text {
        color:#eff0f1;
      }
      </style>
  </defs>
  <g transform="translate(1,1)">
    <path style="fill:currentColor;fill-opacity:1;stroke:none" d="M 6 3 C 6 3 5 2.99997 5 4 L 3 4 L 3 7 L 3 18 L 3 19 L 19 19 L 19 18 L 19 7 L 19 4 L 17 4 C 17 2.99997 16 3 16 3 L 13 3 C 13 3 12 2.99997 12 4 L 10 4 C 10 2.99997 9 3 9 3 L 6 3 z M 6 4 L 9 4 L 9 5 L 6 5 L 6 4 z M 13 4 L 16 4 L 16 5 L 13 5 L 13 4 z M 4 7 L 18 7 L 18 18 L 4 18 L 4 7 z M 8 11 L 8 14 L 14 14 L 14 11 L 8 11 z M 5 12 L 7 13.5 L 7 12 L 5 12 z M 7 13.5 L 5 15 L 7 15 L 7 13.5 z M 15 12 L 15 13.5 L 17 12 L 15 12 z M 15 13.5 L 15 15 L 17 15 L 15 13.5 z " class="ColorScheme-Text"/>
  </g>
</svg>
